apps/ui-icons/svgs/discord.svg

<svg width="24" height="24" viewBox="0 0 24 24" fill="none" xmlns="http://www.w3.org/2000/svg">
<path d="M5.0581 5.34C6.35273 4.714 7.73702 4.25905 9.18425 4C9.36199 4.33209 9.56964 4.77877 9.7128 5.1341C11.2513 4.89499 12.7755 4.89499 14.2857 5.1341C14.4288 4.77877 14.6412 4.33209 14.8205 4C16.2693 4.25905 17.6552 4.71567 18.9498 5.34331C21.5611 9.42136 22.269 13.3981 21.9151 17.3184C20.1831 18.655 18.5047 19.467 16.8545 19.9984C16.4471 19.4189 16.0837 18.8028 15.7707 18.1536C16.3669 17.9195 16.9379 17.6306 17.4774 17.2952C17.3343 17.1856 17.1943 17.071 17.059 16.9531C13.7682 18.5438 10.1926 18.5438 6.94105 16.9531C6.80419 17.071 6.66421 17.1856 6.52263 17.2952C7.06377 17.6322 7.63635 17.9211 8.23254 18.1553C7.9195 18.8028 7.55769 19.4205 7.1487 20C5.49697 19.4687 3.81695 18.6567 2.085 17.3184C1.66971 12.7738 2.79445 8.83355 5.0581 5.34ZM15.3224 14.9075C16.3102 14.9075 17.1204 13.9543 17.1204 12.7937C17.1204 11.6331 16.3275 10.6783 15.3224 10.6783C14.3171 10.6783 13.507 11.6314 13.5243 12.7937C13.5228 13.9543 14.3171 14.9075 15.3224 14.9075ZM8.67772 14.9075C9.66559 14.9075 10.4757 13.9543 10.4757 12.7937C10.4757 11.6331 9.68292 10.6783 8.67772 10.6783C7.67254 10.6783 6.8624 11.6314 6.8797 12.7937C6.8797 13.9543 7.67254 14.9075 8.67772 14.9075Z" fill="#171D26"/>
</svg>

<svg xmlns="http://www.w3.org/2000/svg" width="24" height="24" fill="none" viewBox="0 0 24 24">
  <path fill="#171D26" d="M5.058 5.34A15.91 15.91 0 0 1 9.184 4c.178.332.386.779.529 1.134a14.673 14.673 0 0 1 4.573 0c.143-.355.355-.802.534-1.134 1.45.26 2.835.716 4.13 1.343 2.611 4.078 3.319 8.055 2.965 11.975-1.732 1.337-3.41 2.149-5.06 2.68a13.072 13.072 0 0 1-1.084-1.844 10.512 10.512 0 0 0 1.706-.859 8.57 8.57 0 0 1-.418-.342c-3.29 1.59-6.866 1.59-10.118 0-.137.118-.277.233-.418.342.54.337 1.113.626 1.71.86A13.044 13.044 0 0 1 7.149 20c-1.652-.531-3.332-1.343-5.064-2.682-.415-4.544.71-8.484 2.973-11.978Zm10.264 9.568c.988 0 1.798-.954 1.798-2.114s-.793-2.116-1.798-2.116-1.815.953-1.798 2.116c-.001 1.16.793 2.114 1.798 2.114Zm-6.644 0c.988 0 1.798-.954 1.798-2.114s-.793-2.116-1.798-2.116-1.816.953-1.798 2.116c0 1.16.793 2.114 1.798 2.114Z"/>
</svg>
